X:2483
L:1/8
M:4/4
K:G
 D | G/G/G G>A B>AGB | A/A/A A>B e>dcg | G/G/G G>A B>AGB | ABGD E/E/E E :: g | defg bagb | 
 agab ageg | dega bagb | bgc'b a3 g :|

